dist/img/tg.svg

<svg width="22" height="18" viewBox="0 0 22 18" fill="none" xmlns="http://www.w3.org/2000/svg">
<path d="M1.75302 7.24409L19.722 0.417534C20.556 0.120661 21.2844 0.618001 21.0142 1.86058L21.0157 1.85905L17.9562 16.0615C17.7294 17.0685 17.1222 17.3133 16.2727 16.8389L11.6135 13.4555L9.36617 15.5887C9.11767 15.8335 8.90801 16.0401 8.42656 16.0401L8.75736 11.3682L17.3924 3.68161C17.7683 3.35566 17.3086 3.17203 16.8131 3.49645L6.14199 10.1164L1.5418 8.70245C0.543177 8.39027 0.521435 7.71848 1.75302 7.24409Z" fill="white"/>
</svg>

<svg width="22" height="18" fill="none" xmlns="http://www.w3.org/2000/svg"><path d="M1.753 7.244L19.722.418c.834-.297 1.562.2 1.292 1.443l.002-.002-3.06 14.202c-.227 1.008-.834 1.252-1.683.778l-4.66-3.383-2.247 2.133c-.248.245-.458.451-.94.451l.331-4.672 8.635-7.686c.376-.326-.083-.51-.579-.186l-10.671 6.62-4.6-1.414c-.999-.312-1.02-.984.211-1.458z" fill="#fff"/></svg>
